X:361
T:Hornpipe
T:Peter Wyper's Hornpipe
D:Peter Wyper, Auld Robin Gray and Hornpipe (1910)
Z:Nigel Gatherer
L:1/8
M:4/4
K:D
A>G|F>DF>A d>AF>D|G>EF>D A,>CE>G|F>Ad<f a>fd>f|\
(3efe (3dcB (3ABA (3GFE|
F>DF>A d>AF>D|G>EF>D A,>CE>G|F>Ad>A B>GE>C|D2 D2 D2:|
(3ded|cdef gecA|dfaA baf>a|agB>g gfAf|3efe (3dcB (3ABA (3GFE|
F>DF>A d>AF>D|G>EF>D A,>CE>G|F>Ad>A B>GE>C|D2 D2 D2:|
<end>
<start>
